X:1
T:Title
%%score { ( 1 3 4 ) | 2 }
L:1/8
M:3/4
K:Eb
V:1 treble nm="Grand Piano, Piano"
V:3 treble 
V:4 treble 
V:2 bass 
V:1
 z2 z2[Q:1/4=100] GG | G2 A2 GF | E2 F2 FE | z2 z2 FF | F2 G2 FE | D2 E2 ED | C6 | %7
[M:4/4] DCDE F2 F2 | EDEF G2 G2 | z4 D4 | GFED E2 E2 | FEDC D2 D2 | E2 D2 C4 |[M:3/4] GG G2 c2 | %14
 =Bc d2 c2 | z2 G4 | =BB B2 B2 | A=B c2 B2 | AG F4 |[M:4/4] AG F2 A4 | z2 E2 G4 | F2 E2 D4 | %22
 GFED E2 E2 | FEDC D2 D2 |[M:8/4] E2 D2 C4 z8 |] %25
V:2
 z6 | C,2 E,2 G,2 | C,2 F,2 A,2 | =B,,2 F,4 | =B,,2 D,2 F,2 | G,2 F,2 G,2 | C,2 E,4 | %7
[M:4/4] G,2 F,2 D,2 =B,,2 | G,2 E,2 C,4 | =B,,4 [F,G,]2 F,2 | C,2 E,2 G,2 E,2 | C,2 D,2 F,2 G,2 | %12
 [F,G,]4 [C,E,G,]4 |[M:3/4] z2 C,2 [E,G,]2 | [E,G,]2 C,2 [F,A,]2 | [F,A,]2 C,2 E,2 | %16
 z2 =B,,2 [F,G,]2- | [F,G,]2 D,2 [F,G,]2- | [F,G,]2 [F,A,]4 |[M:4/4] z2 F,2 C,2 F,2 | %20
 GF[K:bass] G,2 C,2 G,2 | D,2 [F,G,]6 | C,2 E,2 G,2 E,2 | C,2 D,2 F,2 G,2 | %24
[M:8/4] [F,G,]4 [C,E,G,]4 z8 |] %25
V:3
 x6 | x6 | x6 | D4 z2 | x6 | x6 | z2 G,4 |[M:4/4] x8 | x8 | F2 E2 z2 G,2 | x8 | x8 | x8 | %13
[M:3/4] x6 | x6 | =BA z2 G,2 | x6 | x6 | x6 |[M:4/4] x8 | x8 | x8 | x8 | x8 |[M:8/4] x16 |] %25
V:4
 x6 | x6 | x6 | z2 G,4 | x6 | x6 | x6 |[M:4/4] x8 | x8 | x8 | x8 | x8 | x8 |[M:3/4] x6 | x6 | x6 | %16
 x6 | x6 | x6 |[M:4/4] x8 | x8 | x8 | x8 | x8 |[M:8/4] x16 |] %25

